assets/icons/24px/outline/pencil-24px.svg

<svg width="24" height="24" viewBox="0 0 24 24" fill="none" xmlns="http://www.w3.org/2000/svg">
<path d="M16.3642 4.13578C16.6927 3.80722 16.857 3.64294 17.0208 3.5335C17.6934 3.08409 18.5705 3.08409 19.2431 3.5335C19.4068 3.64294 19.5711 3.80722 19.8997 4.13578V4.13578C20.2283 4.46434 20.3925 4.62862 20.502 4.79241C20.9514 5.46501 20.9514 6.34209 20.502 7.01469C20.3925 7.17848 20.2283 7.34276 19.8997 7.67132L9.06609 18.5049C8.80155 18.7695 8.66927 18.9017 8.51577 19.0067C8.36227 19.1117 8.19105 19.1871 7.84862 19.3378L6.92936 19.7422C4.94282 20.6163 3.94955 21.0533 3.46584 20.5696C2.98213 20.0859 3.41917 19.0927 4.29325 17.1061L4.69772 16.1869C4.8484 15.8444 4.92373 15.6732 5.02874 15.5197C5.13374 15.3662 5.26601 15.2339 5.53056 14.9694L16.3642 4.13578Z" stroke="white" stroke-width="2" stroke-linecap="round"/>
<path d="M13.6213 6.84314L17.1569 10.3787" stroke="white" stroke-width="2"/>
</svg>

<svg width="24" height="24" fill="none" xmlns="http://www.w3.org/2000/svg"><path d="M16.364 4.136c.329-.329.493-.493.657-.603a2 2 0 0 1 2.222 0c.164.11.328.274.657.603.328.328.492.493.602.656a2 2 0 0 1 0 2.223c-.11.163-.274.328-.602.656L9.066 18.505c-.264.265-.397.397-.55.502-.154.105-.325.18-.667.33l-.92.405c-1.986.874-2.98 1.311-3.463.828-.484-.484-.047-1.477.827-3.464l.405-.92c.15-.342.226-.513.33-.666.106-.154.238-.286.503-.55L16.364 4.135z" stroke="#fff" stroke-width="2" stroke-linecap="round"/><path d="M13.621 6.843l3.536 3.536" stroke="#fff" stroke-width="2"/></svg>
